common/app/assets/images/global/video-icon.svg

<svg xmlns="http://www.w3.org/2000/svg" width="36" height="23"><path fill="#fb0" d="M3.2 0l-3.2 3.3v16.4l3.3 3.3h18.7v-23h-18.8m30.4 1l-8.6 8v5l8.6 8h2.4v-21h-2.4"/></svg>

<svg xmlns="http://www.w3.org/2000/svg" width="36" height="23"><path fill="#fb0" d="M3.2 0L0 3.3v16.4L3.3 23H22V0H3.2m30.4 1L25 9v5l8.6 8H36V1h-2.4"/></svg>
